X:1
T:Title
%%score { ( 1 3 ) | ( 2 4 ) }
L:1/8
M:4/4
K:Ab
V:1 treble nm="Grand Piano"
V:3 treble 
V:2 bass 
V:4 bass 
V:1
 z4 z2[Q:1/4=100] E>E | A2 AA A2 B2 | A4 G2 E>E | B2 BB B2 c2 | B4 A2 A>B | c2 cc c2 [_Ge]2 | %6
 [Fe]4 [Fd]2 [FB]2 | AEAB [EAc]2 [DGB]>[DGB] |[M:3/4] [CA]6 |[M:1/4] G>A |[M:4/4] B6 z2 | e6 z2 | %12
 A>G FG A2 B>[=DAc] | [EGB]6 B>B | c6 z2 | d6 z2 | [CEA][A,CE][CEA][DEB] [EAc]2 [DGB]>[DGB] | %17
[M:3/4] [CA]6 |] %18
V:2
 z4 z2 [A,C]>[A,C] | [A,CE]2 [A,CE][A,CE] [A,CE]2 [A,DE]2 | [E,CE]4 [E,B,E]2 [E,G,]>[E,G,] | %3
 [E,G,E]2 [E,G,E][E,G,E] [E,G,E]2 [E,A,E]2 | [A,DE]4 [A,CE]2 [A,C]>[A,D] | %5
 [A,E]2 [A,E][A,E] [A,E]2 [C,A,]2 | [D,A,]4 [D,A,]2 [D,D]2 | [E,CE][E,A,C][E,CE][E,DE] E,2 E,>E, | %8
[M:3/4] A,,6 |[M:1/4][K:treble] E>F |[M:4/4] G6[K:bass][K:treble] z2 | c6 [A,A]2 | %12
 [A,CE]>[A,CE][K:bass] [A,CE][A,CE] [A,CE]2 [F,=DF]>B,, | E,6[K:treble] G>G | A6 z2 | %15
 F6[K:bass] z2 | E,E,E,E, E,2 E,>E, |[M:3/4] A,,6 |] %18
V:3
 x8 | x8 | x8 | x8 | x8 | x8 | x8 | x8 |[M:3/4] x6 |[M:1/4] x2 |[M:4/4] z2 E>E E2 e2 | %11
 z2 A,2 A,2 c2 | x8 | x8 | z2 E>E E2 e2 | z2 A,2 A,2 [DFB]2 | x8 |[M:3/4] x6 |] %18
V:4
 x8 | x8 | x8 | x8 | x8 | x8 | x8 | x8 |[M:3/4] x6 |[M:1/4][K:treble] x2 | %10
[M:4/4] z2[K:bass] E,>E, E,2[K:treble] d2 | x8 | x2[K:bass] x6 | x6[K:treble] x2 | %14
 z2 A,>A, A,2 _G2 | z2[K:bass] D,2 D,2 D,2 | x8 |[M:3/4] x6 |] %18

